Numix/32/devices/input-gaming.svg

<?xml version="1.0" encoding="UTF-8" standalone="no"?>
<svg
   xmlns:dc="http://purl.org/dc/elements/1.1/"
   xmlns:cc="http://creativecommons.org/ns#"
   xmlns:rdf="http://www.w3.org/1999/02/22-rdf-syntax-ns#"
   xmlns:svg="http://www.w3.org/2000/svg"
   xmlns="http://www.w3.org/2000/svg"
   xmlns:sodipodi="http://sodipodi.sourceforge.net/DTD/sodipodi-0.dtd"
   xmlns:inkscape="http://www.inkscape.org/namespaces/inkscape"
   width="32"
   height="32"
   viewBox="0 0 32 32"
   id="svg2"
   version="1.1"
   inkscape:version="0.91 r"
   sodipodi:docname="input-gaming.svg">
  <metadata
     id="metadata16">
    <rdf:RDF>
      <cc:Work
         rdf:about="">
        <dc:format>image/svg+xml</dc:format>
        <dc:type
           rdf:resource="http://purl.org/dc/dcmitype/StillImage" />
        <dc:title />
      </cc:Work>
    </rdf:RDF>
  </metadata>
  <defs
     id="defs14" />
  <sodipodi:namedview
     pagecolor="#ffffff"
     bordercolor="#666666"
     borderopacity="1"
     objecttolerance="10"
     gridtolerance="10"
     guidetolerance="10"
     inkscape:pageopacity="0"
     inkscape:pageshadow="2"
     inkscape:window-width="1920"
     inkscape:window-height="1056"
     id="namedview12"
     showgrid="true"
     inkscape:zoom="8"
     inkscape:cx="-1.875714"
     inkscape:cy="-6.7053019"
     inkscape:window-x="0"
     inkscape:window-y="24"
     inkscape:window-maximized="1"
     inkscape:current-layer="svg2">
    <inkscape:grid
       type="xygrid"
       id="grid2993" />
  </sodipodi:namedview>
  <g
     id="g4152">
    <path
       sodipodi:nodetypes="sssssccsssssccss"
       inkscape:connector-curvature="0"
       id="path4200"
       d="M 9.232422,7.0025131 C 8.513192,7.0320065 7.9212473,7.3398791 7.513672,7.6490105 5.103937,9.4766945 3,17.100707 3,21.135593 c 0,4.034886 0.927585,3.863354 1.732422,3.863354 0.804836,0 1.816737,-0.553466 2.701172,-1.332056 C 9.875219,21.517467 10.999899,19 13.427734,19 l 5.144532,0 c 2.427835,0 3.552515,2.517467 5.99414,4.666891 0.884435,0.77859 1.896336,1.332056 2.701172,1.332056 C 28.072415,24.998947 29,25.170479 29,21.135593 29,17.100707 26.896063,9.4766945 24.486328,7.6490105 23.834207,7.1544011 22.711846,6.6617866 21.345703,7.3111131 c -0.916098,0.43542 -1.734922,0.6888867 -2.931641,0.6888867 l -4.828124,0 c -1.196719,0 -2.015543,-0.2534667 -2.931641,-0.6888867 -0.512304,-0.243498 -0.990337,-0.3262946 -1.421875,-0.3086 z"
       style="fill:#deddc9;fill-opacity:1;fill-rule:evenodd;stroke:none;stroke-width:1px;stroke-linecap:butt;stroke-linejoin:miter;stroke-opacity:1" />
    <ellipse
       ry="2.0000377"
       rx="2"
       cy="13.999962"
       cx="9"
       id="path4208"
       style="opacity:1;fill:#3b3b3b;fill-opacity:1;fill-rule:nonzero;stroke:none;stroke-width:1.5;stroke-linecap:round;stroke-linejoin:miter;stroke-miterlimit:4;stroke-dasharray:none;stroke-dashoffset:0;stroke-opacity:1" />
    <ellipse
       ry="1.0000188"
       rx="1"
       cy="11.999981"
       cx="23"
       id="path4210"
       style="opacity:1;fill:#df8003;fill-opacity:1;fill-rule:nonzero;stroke:none;stroke-width:1.5;stroke-linecap:round;stroke-linejoin:miter;stroke-miterlimit:4;stroke-dasharray:none;stroke-dashoffset:0;stroke-opacity:1" />
    <ellipse
       ry="1.0000188"
       rx="1"
       style="opacity:1;fill:#e45146;fill-opacity:1;fill-rule:nonzero;stroke:none;stroke-width:1.5;stroke-linecap:round;stroke-linejoin:miter;stroke-miterlimit:4;stroke-dasharray:none;stroke-dashoffset:0;stroke-opacity:1"
       id="circle4212"
       cx="25"
       cy="13.999981" />
    <ellipse
       ry="1.0000188"
       rx="1"
       cy="15.999981"
       cx="23"
       id="circle4214"
       style="opacity:1;fill:#68bf45;fill-opacity:1;fill-rule:nonzero;stroke:none;stroke-width:1.5;stroke-linecap:round;stroke-linejoin:miter;stroke-miterlimit:4;stroke-dasharray:none;stroke-dashoffset:0;stroke-opacity:1" />
    <ellipse
       ry="1.0000188"
       rx="1"
       style="opacity:1;fill:#5b6dc1;fill-opacity:1;fill-rule:nonzero;stroke:none;stroke-width:1.5;stroke-linecap:round;stroke-linejoin:miter;stroke-miterlimit:4;stroke-dasharray:none;stroke-dashoffset:0;stroke-opacity:1"
       id="circle4216"
       cx="21"
       cy="13.999981" />
    <ellipse
       ry="0.75001395"
       rx="0.75"
       cy="13.499986"
       cx="16"
       id="path4218"
       style="opacity:1;fill:none;fill-opacity:1;fill-rule:nonzero;stroke:#3b3b3b;stroke-width:0.5;stroke-linecap:round;stroke-linejoin:miter;stroke-miterlimit:4;stroke-dasharray:none;stroke-dashoffset:0;stroke-opacity:1" />
    <ellipse
       ry="0.50000936"
       rx="0.5"
       cy="13.49999"
       cx="13.5"
       id="circle4220"
       style="opacity:1;fill:#3b3b3b;fill-opacity:1;fill-rule:nonzero;stroke:none;stroke-width:1.5;stroke-linecap:round;stroke-linejoin:miter;stroke-miterlimit:4;stroke-dasharray:none;stroke-dashoffset:0;stroke-opacity:1" />
    <circle
       r="0.5"
       style="opacity:1;fill:#3b3b3b;fill-opacity:1;fill-rule:nonzero;stroke:none;stroke-width:1.5;stroke-linecap:round;stroke-linejoin:miter;stroke-miterlimit:4;stroke-dasharray:none;stroke-dashoffset:0;stroke-opacity:1"
       id="circle4222"
       cx="18.5"
       cy="13.5" />
    <path
       inkscape:connector-curvature="0"
       id="rect4218"
       d="m 22.768229,7.0026038 c -0.03273,-0.00133 -0.06831,0.00407 -0.101562,0.00393 l 0,14.7916672 c 0.564188,0.589141 1.170352,1.226391 1.899739,1.868489 0.247869,0.218206 0.506399,0.411626 0.766927,0.58724 l 0,-15.7135422 C 25.057266,8.1726325 24.773537,7.8667945 24.485677,7.6484638 24.078102,7.3393331 23.487893,7.0318958 22.768229,7.0026305 Z"
       style="opacity:0.4;fill:#ffffff;fill-opacity:1;fill-rule:nonzero;stroke:none;stroke-width:0.5;stroke-linecap:round;stroke-linejoin:miter;stroke-miterlimit:4;stroke-dasharray:none;stroke-dashoffset:0;stroke-opacity:1" />
  </g>
</svg>

<svg xmlns="http://www.w3.org/2000/svg" viewBox="0 0 32 32">
 <g>
  <path d="m 9.232 7 c -0.719 0.029 -1.311 0.337 -1.719 0.646 -2.41 1.828 -4.514 9.452 -4.514 13.487 c 0 4.03 0.928 3.863 1.732 3.863 0.805 0 1.817 -0.553 2.701 -1.332 c 2.442 -2.149 3.566 -4.667 5.994 -4.667 l 5.145 0 c 2.428 0 3.553 2.517 5.994 4.667 0.884 0.779 1.896 1.332 2.701 1.332 c 0.805 0 1.732 0.172 1.732 -3.863 0 -4.03 -2.104 -11.659 -4.514 -13.487 -0.652 -0.495 -1.774 -0.987 -3.141 -0.338 c -0.916 0.435 -1.735 0.689 -2.932 0.689 l -4.828 0 c -1.197 0 -2.02 -0.253 -2.932 -0.689 -0.512 -0.243 -0.99 -0.326 -1.422 -0.309 z" style="fill:#deddc9;fill-opacity:1;stroke:none;fill-rule:evenodd"/>
  <ellipse ry="2" rx="2" cy="14" cx="9" style="fill:#3b3b3b;opacity:1;fill-opacity:1;stroke:none;fill-rule:nonzero"/>
  <ellipse ry="1" rx="1" cy="12" cx="23" style="fill:#df8003;opacity:1;fill-opacity:1;stroke:none;fill-rule:nonzero"/>
  <ellipse ry="1" rx="1" cx="25" cy="14" style="fill:#e45146;opacity:1;fill-opacity:1;stroke:none;fill-rule:nonzero"/>
  <ellipse ry="1" rx="1" cy="16" cx="23" style="fill:#68bf45;opacity:1;fill-opacity:1;stroke:none;fill-rule:nonzero"/>
  <ellipse ry="1" rx="1" cx="21" cy="14" style="fill:#5b6dc1;opacity:1;fill-opacity:1;stroke:none;fill-rule:nonzero"/>
  <ellipse ry="0.75" rx="0.75" cy="13.5" cx="16" style="stroke-dasharray:none;stroke-opacity:1;fill:none;opacity:1;stroke-miterlimit:4;fill-opacity:1;stroke:#3b3b3b;fill-rule:nonzero;stroke-linecap:round;stroke-linejoin:miter;stroke-width:0.5;stroke-dashoffset:0"/>
  <ellipse ry="0.5" rx="0.5" cy="13.5" cx="13.5" style="fill:#3b3b3b;opacity:1;fill-opacity:1;stroke:none;fill-rule:nonzero"/>
  <circle r="0.5" cx="18.5" cy="13.5" style="fill:#3b3b3b;opacity:1;fill-opacity:1;stroke:none;fill-rule:nonzero"/>
  <path d="m 22.768 7 c -0.033 -0.001 -0.068 0.004 -0.102 0.004 l 0 14.792 c 0.564 0.589 1.17 1.226 1.9 1.868 0.248 0.218 0.506 0.412 0.767 0.587 l 0 -15.714 c -0.276 -0.368 -0.56 -0.674 -0.848 -0.892 -0.408 -0.309 -0.998 -0.617 -1.717 -0.646" style="fill:#fff;opacity:0.4;fill-opacity:1;stroke:none;fill-rule:nonzero"/>
 </g>
</svg>
